data/styles/clear/style-night/symbols/remains-m.svg

<svg height="24" viewBox="0 0 24 24" width="24"><g fill="none" fill-rule="evenodd"><circle cx="12" cy="12" fill="#fff" opacity=".4" r="12"/><circle cx="12" cy="12" fill="#3d3d36" r="11"/><path d="m15.2307692 9.69230769h-6.46153843c-.50981539 0-.92307692-.41326154-.92307692-.92307692v-2.30769231c0-.25486154.20667692-.46153846.46153846-.46153846s.46153846.20667692.46153846.46153846v1.38461539h.92307692v-.92307693c0-.50981538.41326151-.92307692.92307691-.92307692s.9230769.41326154.9230769.92307692v.92307693h.923077v-.92307693c0-.50981538.4132615-.92307692.9230769-.92307692s.9230769.41326154.9230769.92307692v.92307693h.9230769v-1.38461539c0-.25486154.206677-.46153846.4615385-.46153846s.4615385.20667692.4615385.46153846v2.30769231c0 .50981538-.4132616.92307692-.923077.92307692zm2.3076923 8.30769231h-11.07692304c-.25486154 0-.46153846-.2066769-.46153846-.4615385 0-.2548615.20667692-.4615384.46153846-.4615384h.46153846c.50981539 0 .92307693-.4132616.92307693-.9230769 0 0 .92307692-3.6923077.92307692-4.6153847 0-.5098153.41326154-.9230769.92307692-.9230769h4.61538461c.5098154 0 .9230769.4132616.9230769.9230769 0 .923077.923077 4.6153847.923077 4.6153847 0 .5098153.4132615.9230769.9230769.9230769h.4615384c.2513539-.0000923.4565539.2010461.4615385.4523077 0 .2640923-.2066769.4707692-.4615385.4707692zm-4.1538461-3.2307692c0-.764677-.6199385-1.3846154-1.3846154-1.3846154s-1.3846154.6199384-1.3846154 1.3846154v2.3076923h2.7692308v-3.2307693z" fill="#fff" opacity=".6"/></g></svg>

<svg width="24" height="24" viewBox="0 0 24 24">
  <g fill="none" fill-rule="evenodd">
    <circle cx="12" cy="12" r="12" fill="#FFF" opacity=".4"/>
    <circle cx="12" cy="12" r="11" fill="#3D3C36"/>
    <path fill="#FFF" d="M15.2307692,9.69230769 L8.76923077,9.69230769 C8.25941538,9.69230769 7.84615385,9.27904615 7.84615385,8.76923077 L7.84615385,6.46153846 C7.84615385,6.20667692 8.05283077,6 8.30769231,6 C8.56255385,6 8.76923077,6.20667692 8.76923077,6.46153846 L8.76923077,7.84615385 L9.69230769,7.84615385 L9.69230769,6.92307692 C9.69230769,6.41326154 10.1055692,6 10.6153846,6 C11.1252,6 11.5384615,6.41326154 11.5384615,6.92307692 L11.5384615,7.84615385 L12.4615385,7.84615385 L12.4615385,6.92307692 C12.4615385,6.41326154 12.8748,6 13.3846154,6 C13.8944308,6 14.3076923,6.41326154 14.3076923,6.92307692 L14.3076923,7.84615385 L15.2307692,7.84615385 L15.2307692,6.46153846 C15.2307692,6.20667692 15.4374462,6 15.6923077,6 C15.9471692,6 16.1538462,6.20667692 16.1538462,6.46153846 L16.1538462,8.76923077 C16.1538462,9.27904615 15.7405846,9.69230769 15.2307692,9.69230769 L15.2307692,9.69230769 Z M17.5384615,18 L6.46153846,18 C6.20667692,18 6,17.7933231 6,17.5384615 C6,17.2836 6.20667692,17.0769231 6.46153846,17.0769231 L6.92307692,17.0769231 C7.43289231,17.0769231 7.84615385,16.6636615 7.84615385,16.1538462 C7.84615385,16.1538462 8.76923077,12.4615385 8.76923077,11.5384615 C8.76923077,11.0286462 9.18249231,10.6153846 9.69230769,10.6153846 L14.3076923,10.6153846 C14.8175077,10.6153846 15.2307692,11.0286462 15.2307692,11.5384615 C15.2307692,12.4615385 16.1538462,16.1538462 16.1538462,16.1538462 C16.1538462,16.6636615 16.5671077,17.0769231 17.0769231,17.0769231 L17.5384615,17.0769231 C17.7898154,17.0768308 17.9950154,17.2779692 18,17.5292308 C18,17.7933231 17.7933231,18 17.5384615,18 Z M13.3846154,14.7692308 C13.3846154,14.0045538 12.7646769,13.3846154 12,13.3846154 C11.2353231,13.3846154 10.6153846,14.0045538 10.6153846,14.7692308 L10.6153846,17.0769231 L13.3846154,17.0769231 L13.3846154,13.8461538 L13.3846154,14.7692308 Z" opacity=".6"/>
  </g>
</svg>
